fs/subtitles_20_regular.svg

<svg viewBox="0 0 20 20" fill="none" xmlns="http://www.w3.org/2000/svg" height="1em" width="1em">
  <path d="M2 6.75C2 5.23122 3.23122 4 4.75 4H15.25C16.7688 4 18 5.23122 18 6.75V13.25C18 14.7688 16.7688 16 15.25 16H4.75C3.23122 16 2 14.7688 2 13.25V6.75ZM4.75 5C3.7835 5 3 5.7835 3 6.75V13.25C3 14.2165 3.7835 15 4.75 15H15.25C16.2165 15 17 14.2165 17 13.25V6.75C17 5.7835 16.2165 5 15.25 5H4.75ZM4 11.5C4 11.2239 4.22386 11 4.5 11H11.5C11.7761 11 12 11.2239 12 11.5C12 11.7761 11.7761 12 11.5 12H4.5C4.22386 12 4 11.7761 4 11.5ZM4.5 13C4.22386 13 4 13.2239 4 13.5C4 13.7761 4.22386 14 4.5 14H7.5C7.77614 14 8 13.7761 8 13.5C8 13.2239 7.77614 13 7.5 13H4.5ZM13 11.5C13 11.2239 13.2239 11 13.5 11H15.5C15.7761 11 16 11.2239 16 11.5C16 11.7761 15.7761 12 15.5 12H13.5C13.2239 12 13 11.7761 13 11.5ZM9.5 13C9.22386 13 9 13.2239 9 13.5C9 13.7761 9.22386 14 9.5 14H15.5C15.7761 14 16 13.7761 16 13.5C16 13.2239 15.7761 13 15.5 13H9.5Z" fill="#212121"/>
</svg>

<svg viewBox="0 0 20 20" fill="none" xmlns="http://www.w3.org/2000/svg" height="1em" width="1em">
  <path d="M2 6.75A2.75 2.75 0 0 1 4.75 4h10.5A2.75 2.75 0 0 1 18 6.75v6.5A2.75 2.75 0 0 1 15.25 16H4.75A2.75 2.75 0 0 1 2 13.25v-6.5ZM4.75 5A1.75 1.75 0 0 0 3 6.75v6.5c0 .966.784 1.75 1.75 1.75h10.5A1.75 1.75 0 0 0 17 13.25v-6.5A1.75 1.75 0 0 0 15.25 5H4.75ZM4 11.5a.5.5 0 0 1 .5-.5h7a.5.5 0 0 1 0 1h-7a.5.5 0 0 1-.5-.5Zm.5 1.5a.5.5 0 0 0 0 1h3a.5.5 0 0 0 0-1h-3Zm8.5-1.5a.5.5 0 0 1 .5-.5h2a.5.5 0 0 1 0 1h-2a.5.5 0 0 1-.5-.5ZM9.5 13a.5.5 0 0 0 0 1h6a.5.5 0 0 0 0-1h-6Z" fill="#212121"/>
</svg>
